X:185
T:Grey Eagle
C:Traditional - Arr. Tim O'Brien
N: 
R:bluegrass
L:1/8
Q:1/4=221
M:4/4
K:C
z6 ^cB |: "A"A2 ^FA E^C A,C | E^F A^c BA Bc | AE ^FA E^C A,C | "E"E^F A^c e2 (3BcB | 
"A"A2 ^FA E^C A,C | E^F A^c BA cd | ea (3^faf e^c Ac |1 B"E"A ^GB "A"A2 ^cB :|2 B"E"A ^GB "A"A2 ^cd | 
"A"e^c Ae cA ce | "D"^fd Ad f^g af | "A"ed ^ce Ae cA | "E"E^G B^c dB GE | "A"e^c Ae cA ce | 
"D"^fd Ad f^g af | "A"ea (3^faf e^c Ac :| B"E"A ^GB "A"A2 (3e^f^g |: "A"ae ^fa e^c ee | 
ae a^c' ba =c'b | a^f ed ^cA cd | "E"e^g ab ae ^fg | "A"ae (3^faf e^c ee | ae a^c' ba bc' | 
e'^c' ae c'a e^c |1 B"E"A ^GB "A"A2 (3AB^c :|2 B"E"A ^GB "A"A2 (3^f^gf |: "A"e^c ea ^fe cB | 
"D"A^c ea ^f^g af | "A"e^c ea (3^faf ec | "E"de ^cd BA ^GB | "A"AB ^cd ec A^F | 
"D"D^F Ad B^c d^f | "A"ea ^ga ^fa ed |1 ^c"E"A Bc "A"A2 (3^f^gf :|2 ^c"E"A Bc "A"A2 B,/^C/B, | 
|: "A"A,^C EA ^ce a^c' | e'2 (3eab ^c'2 (3e^f^g | a^f gf ed ^cA | (3"E"B^cB A^G (3^FGF E^C | 
"A"A,^C EA ^ce a^c' | e'^c' ae c'a e^c | ae ^c^f ec Ac |1 B"E"A ^GB "A"A2 (3B,^CB, :|2 B"E"A ^GB "A"A2 AB | 
|: "A"c^c ec ^fc ec | "D"AB c^f ec BA | "A"c^c ^fc ec Ac | "E"de ^cd BA ^GB | 
"A"AB ^cd ec A^F | "D"D^F Ad B^c d^f | "A"ea ^ga ^fa =fa |1 A"E"d ^cB "A"A2 AB :|2 A"E"d ^cB "A"A4 | 


